fs/gif_16_filled.svg

<svg viewBox="0 0 16 16" fill="none" xmlns="http://www.w3.org/2000/svg" height="1em" width="1em">
  <path d="M1 4.5C1 3.11929 2.11929 2 3.5 2H12.5C13.8807 2 15 3.11929 15 4.5V11.5C15 12.8807 13.8807 14 12.5 14H3.5C2.11929 14 1 12.8807 1 11.5V4.5ZM5.05163 6.70635C5.53299 6.65615 5.90489 6.7425 6.03789 6.809C6.28488 6.9325 6.58522 6.83239 6.70871 6.5854C6.83221 6.33841 6.7321 6.03807 6.48511 5.91458C6.13354 5.73879 5.55682 5.64824 4.94789 5.71174C3.98712 5.81195 3 6.64564 3 8.00858C3 9.3936 4.05446 10.3084 5.29971 10.3084C5.88068 10.3084 6.4004 10.0364 6.69732 9.75566C6.95907 9.50818 6.99953 9.17847 6.99961 8.97285L7 8.00878C7.00005 7.87612 6.94739 7.74889 6.8536 7.65507C6.75981 7.56126 6.63258 7.50856 6.49993 7.50858L5.69333 7.50869C5.41719 7.50873 5.19336 7.73262 5.1934 8.00877C5.19344 8.28491 5.41733 8.50873 5.69347 8.50869L5.9998 8.50865L5.99961 8.97245C5.99961 8.99382 5.99845 9.01148 5.99665 9.02563C5.99565 9.0335 5.99452 9.03969 5.9935 9.04438C5.84807 9.17295 5.57644 9.30841 5.29971 9.30841C4.56882 9.30841 4 8.80414 4 8.00858C4 7.19094 4.56652 6.75694 5.05163 6.70635ZM9 6.20905C9 5.93291 8.77614 5.70905 8.5 5.70905C8.22386 5.70905 8 5.93291 8 6.20905V9.80841C8 10.0845 8.22386 10.3084 8.5 10.3084C8.77614 10.3084 9 10.0845 9 9.80841V6.20905ZM10.5 5.70905C10.2239 5.70905 10 5.93291 10 6.20905V9.80841C10 10.0845 10.2239 10.3084 10.5 10.3084C10.7761 10.3084 11 10.0845 11 9.80841V8.5058L12.0029 8.49999C12.279 8.49839 12.5016 8.27324 12.5 7.9971C12.4984 7.72096 12.2732 7.49841 11.9971 7.50001L11 7.50579V6.70905H12.5C12.7761 6.70905 13 6.48519 13 6.20905C13 5.93291 12.7761 5.70905 12.5 5.70905H10.5Z" fill="#212121"/>
</svg>

<svg viewBox="0 0 16 16" fill="none" xmlns="http://www.w3.org/2000/svg" height="1em" width="1em">
  <path d="M1 4.5A2.5 2.5 0 0 1 3.5 2h9A2.5 2.5 0 0 1 15 4.5v7a2.5 2.5 0 0 1-2.5 2.5h-9A2.5 2.5 0 0 1 1 11.5v-7Zm4.052 2.206c.481-.05.853.036.986.103a.5.5 0 1 0 .447-.894c-.351-.176-.928-.267-1.537-.203-.96.1-1.948.934-1.948 2.297 0 1.385 1.054 2.3 2.3 2.3.58 0 1.1-.273 1.397-.553.262-.248.303-.578.303-.783v-.964a.5.5 0 0 0-.5-.5h-.807a.5.5 0 0 0 0 1H6v.463a.426.426 0 0 1-.006.072 1.126 1.126 0 0 1-.694.264c-.731 0-1.3-.504-1.3-1.3 0-.817.567-1.251 1.052-1.302ZM9 6.21a.5.5 0 0 0-1 0v3.6a.5.5 0 0 0 1 0v-3.6Zm1.5-.5a.5.5 0 0 0-.5.5v3.6a.5.5 0 0 0 1 0V8.505l1.003-.006a.5.5 0 0 0-.006-1L11 7.506v-.797h1.5a.5.5 0 0 0 0-1h-2Z" fill="#212121"/>
</svg>
